X: 139
T: St. Anne's Reel - D
R: reel
Z: 2012 John Chambers <jc:trillian.mit.edu>
B: NEFR #139
M: C|
L: 1/8
K: D
|:"D"f2 fg fe dB | A2 FA A2 FA | "G"B2 GB B2 GB | "D"AB AG FA de |
|: ag |\
"D"fd fa fd fa | "Em"ag gf g2 gf | "A7"ed cB AB ce | "D"ba a^g a2 a=g |

